X:30
T: HEIJO WOERN WIR DO
N: K0115A
O: Europa, Mitteleuropa, Deutschland, Ruhrgebiet
R: Kinder -, Wiegen - Lied
M: 2/4
L: 1/16
K: F
 | c4A4 | c2c2A4 |
c2c2AAd2 | c4A4 |
c2c2A2d2 | c4A4 |
F2G2A2B2 | c2c2c4 |
d2c2B2AA | G2GGF4 |
F2G2AAB2 | G2G2F4

@@@ Tune index: 7367
